X:1
T:John l'amoureux
C:Y. Duteil
L:1/8
Q:360
M:2/2
K:G
[B2G,2][BG,]A[BG,]c[d2G,2]|[B2G,2][BG,]A[BG,]A[G2G,2]|[A2=F,2][A=F,]G[=FF,]G[AF,]B|[c2=F,2][c=F,]B[cF,]B[A2F,2]|[B2G,2][BG,]A[BG,]c[d2G,2]|[B2G,2][BG,]A[BG,]A[G2G,2]| \
[A=F,]G[=F=F,]G[AF,]B[cF,]A|[BG,]G[G2G,2][G2G,2]G,2|[e2C,2][eC,]d[eC,]=f[g2C,2]|[e2C,2][eC,]d[eC,]d[c2C,2]|[GC,]c[eC,]=f[g2C,2][eC,]c|[d2D,2]D,2D,2D,2| \
[BG,]A[BG,]c[d2G,2][dG,]c|[BG,]G[G2G,2][G2G,2]G,2|[A=F,]G[=F=F,]G[AF,]B[cF,]A|[BG,]G[G2G,2][G2G,2]G,2|[BG,]A[BG,]c[d2G,2][dG,]c|[BG,]G[G2G,2][G2G,2]G,2| \
[A=F,]G[=F=F,]G[AF,]B[cF,]A|[BG,]G[G2G,2][G2G,2]G,2| \
K:C
Z:Created with TablEdit http://www.tabledit.com/
